X: 32238
T: Pi, The
R: waltz
M: 3/4
K: Gmajor
{A}B3(Bd2)|A3(AB2)|{F}G3F T(ED)|{C}[D4D4](3DDD|([D2D2].[D2E2]) zF|(G2.E2)F2|G2.A2B2|c2{c}(e2d2)|
B3(Bd2)|A3(AB2)|{F}G3F T(ED)|{C}[D4D4](3DDD|([D2D2].[D2E2]) zF|G2A2B2|c2{c}(e2d2)|G6:|
|:{f}g4 fe|{c}d2.B2B2|{Bd}e3e dc|TB2.G2G2{AG}|F2A2c2|{cd}e2.d2c2|B2.d2g2|d2.g2{ga}b2|
{f}g3g fe|{c}d2.B2B2|{Bd}e3e dc|TB2.G2G2{AG}|F2A2c2|{cd}e3dF2|G6|G6:|
|:(b4g2)|{e}f3(f a2)|e3(e g2)|d6|(Bd) Ac Bd|.g2.G2 zA|{A}B3(d AB)|{F}G6:|

